!!!COM: des Prez, Josquin
!!!CDT: ~1450-1521/08/27
!!!OTL@@FRE: Vive le roy
!!!AGN: Chanson
!!!SCT: NJE 28.36
!!!SCA: New Josquin Edition 28.36
!!!voices: 4
**kern	**text	**kern	**text	**kern	**text	**kern	**text
*staff4	*	*staff3	*	*staff2	*	*staff1	*
*Ivox	*	*Ivox	*	*Ivox	*	*Ivox	*
*I"Bassus	*	*I"Tenor	*	*I"Altus	*	*I"Superius	*
*I'B	*	*I'T	*	*I'A	*	*I'S	*
*clefF4	*	*clefGv2	*	*clefGv2	*	*clefG2	*
*k[]	*	*k[]	*	*k[]	*	*k[]	*
*M2/1	*	*M2/1	*	*M2/1	*	*M2/1	*
*met(C|)	*	*met(C|)	*	*met(C|)	*	*met(C|)	*
=1-	=1-	=1-	=1-	=1-	=1-	=1-	=1-
!	!	!LO:TX:Z=10:t=T&colon; soggetto cavato `Vive le roy' = ut mi ut re re sol mi (on c'-g-c')	!	!LO:TX:Z=15:t=3-ex-1 canon at the lower 5th/upper 4th (A-->B, S)	!	!LO:TX:Z=20:t=Probably instrumental (underlay conjectural)	!
1r	.	0r	.	1d	Vi-	0r	.
1G	Vi-	.	.	2d\	-ve	.	.
.	.	.	.	2d\	le	.	.
=2	=2	=2	=2	=2	=2	=2	=2
2G\	-ve	0r	.	2.d\	roy,	1g	Vi-
2G\	le	.	.	.	.	.	.
.	.	.	.	4B\	.	.	.
2.G\	roy,	.	.	1B	.	2g/	-ve
.	.	.	.	.	.	2g/	le
4E\	.	.	.	.	.	.	.
=3	=3	=3	=3	=3	=3	=3	=3
1E	.	0r	.	2r	.	2.g/	roy,
.	.	.	.	2e\	vi-	.	.
.	.	.	.	.	.	4e/	.
2r	.	.	.	2e\	-ve	1e	.
2A\	vi-	.	.	2e\	le	.	.
=4	=4	=4	=4	=4	=4	=4	=4
2A\	-ve	0r	.	2.c\	roy,	2r	.
2A\	le	.	.	.	.	2a/	vi-
.	.	.	.	4A/	.	.	.
2.F\	roy,	.	.	1A	.	2a/	-ve
.	.	.	.	.	.	2a/	le
4D\	.	.	.	.	.	.	.
=5	=5	=5	=5	=5	=5	=5	=5
1D	.	0r	.	2r	.	2.f/	roy,
.	.	.	.	2d\	vi-	.	.
.	.	.	.	.	.	4d/	.
2r	.	.	.	2d\	-ve	1d	.
2G\	vi-	.	.	2d\	le	.	.
=6	=6	=6	=6	=6	=6	=6	=6
2G\	-ve	0r	.	2.B\	roy,	2r	.
2G\	le	.	.	.	.	2g/	vi-
.	.	.	.	4G/	.	.	.
2.E\	roy,	.	.	1G	.	2g/	-ve
.	.	.	.	.	.	2g/	le
4C/	.	.	.	.	.	.	.
=7	=7	=7	=7	=7	=7	=7	=7
1C	.	0c	Vi-	2r	.	2.e/	roy,
.	.	.	.	2g\	vi-	.	.
.	.	.	.	.	.	4c/	.
2r	.	.	.	2g\	-ve	1c	.
2c\	vi-	.	.	2g\	le	.	.
=8	=8	=8	=8	=8	=8	=8	=8
2c\	-ve	0e	.	1g	roy,	2r	.
2c\	le	.	.	.	.	2cc\	vi-
1c	roy,	.	.	2r	.	2cc\	-ve
.	.	.	.	2e\	vi-	2cc\	le
=9	=9	=9	=9	=9	=9	=9	=9
2r	.	0c	-ve	2e\	-ve	1cc	roy,
2A\	vi-	.	.	2e\	le	.	.
2A\	-ve	.	.	2a\	roy,	2r	.
2A\	le	.	.	2a\	vi-	2a/	vi-
=10	=10	=10	=10	=10	=10	=10	=10
2d\	roy,	0d	.	2f\	-ve	2a/	-ve
2d\	vi-	.	.	2f\	le	2a/	le
2B\	-ve	.	.	1d	roy,	2dd\	roy,
2B\	le	.	.	.	.	2dd\	vi-
=11	=11	=11	=11	=11	=11	=11	=11
1G	roy,	0d	le	3d\V	vi-	2b\	-ve
.	.	.	.	3d\	-ve	.	.
.	.	.	.	.	.	2b\	le
.	.	.	.	3d\Z	le	.	.
3G\V	vi-	.	.	2.B\	roy,	1g	roy,
3G\	-ve	.	.	.	.	.	.
3G\Z	le	.	.	.	.	.	.
.	.	.	.	4G/	.	.	.
=12	=12	=12	=12	=12	=12	=12	=12
2.E\	roy,	0g	roy,	1G	.	3g/V	vi-
.	.	.	.	.	.	3g/	-ve
.	.	.	.	.	.	3g/Z	le
4C/	.	.	.	.	.	.	.
1C	.	.	.	2r	.	2.e/	roy,
.	.	.	.	[2g\	vi-	.	.
.	.	.	.	.	.	4c/	.
=13	=13	=13	=13	=13	=13	=13	=13
2r	.	0e	.	4g\]	.	1c	.
.	.	.	.	4g\	-ve	.	.
2.c\	vi-	.	.	2g\	le	.	.
.	.	.	.	2e\	roy	2r	.
4c\	-ve	.	.	.	.	.	.
2c\	le	.	.	2e\	le	[2cc\	vi-
=14	=14	=14	=14	=14	=14	=14	=14
2A\	roy	0r	.	1a	roy,	4cc\]	.
.	.	.	.	.	.	4cc\	-ve
2A\	le	.	.	.	.	2cc\	le
1d	roy,	.	.	1f	.	2a/	roy
.	.	.	.	.	.	2a/	le
=15	=15	=15	=15	=15	=15	=15	=15
1B	.	0r	.	2r	.	1dd	roy,
.	.	.	.	2d\	vi-	.	.
2r	.	.	.	3g\V	.	1b	.
.	.	.	.	3g\	-ve	.	.
2G\	vi-	.	.	.	.	.	.
.	.	.	.	3g\Z	le	.	.
=16	=16	=16	=16	=16	=16	=16	=16
3c\V	.	0r	.	2e\	roy	2r	.
3c\	-ve	.	.	.	.	.	.
.	.	.	.	2e\	le	2g/	vi-
3c\Z	le	.	.	.	.	.	.
2A\	roy	.	.	1a	roy,	3cc\V	.
.	.	.	.	.	.	3cc\	-ve
2A\	le	.	.	.	.	.	.
.	.	.	.	.	.	3cc\Z	le
=17	=17	=17	=17	=17	=17	=17	=17
1d	roy,	0r	.	1f	.	2a/	roy
.	.	.	.	.	.	2a/	le
1B	.	.	.	2r	.	1dd	roy,
.	.	.	.	2d\	vi-	.	.
=18	=18	=18	=18	=18	=18	=18	=18
2r	.	0r	.	2g\	-ve	1b	.
2G\	vi-	.	.	2g\	le	.	.
2c\	-ve	.	.	2e\	roy	2r	.
2c\	le	.	.	2e\	le	2g/	vi-
=19	=19	=19	=19	=19	=19	=19	=19
2A\	roy	0r	.	1a	roy,	2cc\	-ve
2A\	le	.	.	.	.	2cc\	le
1d	roy,	.	.	1f	.	2a/	roy
.	.	.	.	.	.	2a/	le
=20	=20	=20	=20	=20	=20	=20	=20
1B	.	0G	vi-	2r	.	1dd	roy,
.	.	.	.	2.d\	vi-	.	.
2r	.	.	.	.	.	1b	.
.	.	.	.	4d\	-ve	.	.
[2G\	vi-	.	.	2d\	le	.	.
=21	=21	=21	=21	=21	=21	=21	=21
4G\]	.	0B	.	1d	roy,	2r	.
4G\	-ve	.	.	.	.	.	.
2G\	le	.	.	.	.	2.g/	vi-
1G	roy,	.	.	2r	.	.	.
.	.	.	.	.	.	4g/	-ve
.	.	.	.	[2G/	vi-	2g/	le
=22	=22	=22	=22	=22	=22	=22	=22
2r	.	0G	-ve	4G/]	.	1g	roy
.	.	.	.	4G/	-ve	.	.
2.C/	vi-	.	.	2G/	le	.	.
.	.	.	.	2g\	roy,	2r	.
4C/	-ve	.	.	.	.	.	.
2C/	le	.	.	2g\	vi-	[2c/	vi-
=23	=23	=23	=23	=23	=23	=23	=23
2c\	roy,	0A	.	2e\	-ve	4c/]	.
.	.	.	.	.	.	4c/	-ve
2c\	vi-	.	.	2e\	le	2c/	le
2A\	-ve	.	.	[1c	roy,	2cc\	roy,
2A\	le	.	.	.	.	2cc\	vi-
=24	=24	=24	=24	=24	=24	=24	=24
1.F	roy,	0A	le	2c\]	.	2a/	-ve
.	.	.	.	4B\	.	2a/	le
.	.	.	.	4A/	.	.	.
.	.	.	.	[1A	.	[1f	roy,
4E\	.	.	.	.	.	.	.
4D\	.	.	.	.	.	.	.
=25	=25	=25	=25	=25	=25	=25	=25
1D	.	0d	roy,	2A/]	.	2f/]	.
.	.	.	.	2.D/	vi-	4e/	.
.	.	.	.	.	.	4d/	.
2r	.	.	.	.	.	1d	.
.	.	.	.	4D/	-ve	.	.
[2GG/	vi-	.	.	2D/	le	.	.
=26	=26	=26	=26	=26	=26	=26	=26
4GG/]	.	0B	.	1D	roy,	2r	.
4GG/	-ve	.	.	.	.	.	.
2GG/	le	.	.	.	.	2.G/	vi-
1GG	roy,	.	.	2r	.	.	.
.	.	.	.	.	.	4G/	-ve
.	.	.	.	2d\	vi-	2G/	le
=27	=27	=27	=27	=27	=27	=27	=27
2r	.	0r	.	2d\	-ve	1G	roy,
2G\	vi-	.	.	2B\	le	.	.
2G\	-ve	.	.	1G	roy,	2r	.
2E\	le	.	.	.	.	2g/	vi-
=28	=28	=28	=28	=28	=28	=28	=28
1C	roy,	0r	.	2r	.	2g/	-ve
.	.	.	.	2c\	vi-	2e/	le
2r	.	.	.	2A/	-ve	1c	roy,
2F\	vi-	.	.	2A/	le	.	.
=29	=29	=29	=29	=29	=29	=29	=29
2D\	-ve	0r	.	2d\	roy,	2r	.
2D\	le	.	.	2d\	le	2f/	vi-
2G\	roy,	.	.	2.B\	roy,	2d/	-ve
2G\	le	.	.	.	.	2d/	le
.	.	.	.	4G/	.	.	.
=30	=30	=30	=30	=30	=30	=30	=30
2.E\	roy,	0r	.	1G	.	2g/	roy,
.	.	.	.	.	.	2g/	le
4C/	.	.	.	.	.	.	.
1C	.	.	.	2r	.	2.e/	roy,
.	.	.	.	2c\	vi-	.	.
.	.	.	.	.	.	4c/	.
=31	=31	=31	=31	=31	=31	=31	=31
2r	.	0r	.	2A/	-ve	1c	.
2F\	vi-	.	.	2A/	le	.	.
2D\	-ve	.	.	2d\	roy,	2r	.
2D\	le	.	.	2d\	le	2f/	vi-
=32	=32	=32	=32	=32	=32	=32	=32
2G\	roy,	0r	.	2.B\	roy,	2d/	-ve
2G\	le	.	.	.	.	2d/	le
.	.	.	.	4G/	.	.	.
2.E\	roy,	.	.	1G	.	2g/	roy,
.	.	.	.	.	.	2g/	le
4C/	.	.	.	.	.	.	.
=33	=33	=33	=33	=33	=33	=33	=33
1C	.	0c	vi-	2r	.	2.e/	roy,
.	.	.	.	2.g\	vi-	.	.
.	.	.	.	.	.	4c/	.
2r	.	.	.	.	.	1c	.
.	.	.	.	4g\	-ve	.	.
[2c\	vi-	.	.	2g\	le	.	.
=34	=34	=34	=34	=34	=34	=34	=34
4c\]	.	0e	.	1g	roy,	2r	.
4c\	-ve	.	.	.	.	.	.
2c\	le	.	.	.	.	2.cc\	vi-
1c	roy,	.	.	2r	.	.	.
.	.	.	.	.	.	4cc\	-ve
.	.	.	.	2e\	vi-	2cc\	le
=35	=35	=35	=35	=35	=35	=35	=35
2r	.	0c	-ve	2e\	-ve	1cc	roy,
2A\	vi-	.	.	2c\	le	.	.
2A\	-ve	.	.	2A/	roy,	2r	.
2F\	le	.	.	2A/	vi-	2a/	vi-
=36	=36	=36	=36	=36	=36	=36	=36
2D\	roy,	0d	.	2a\	-ve	2a/	-ve
2D\	vi-	.	.	2a\	le	2f/	le
2d\	-ve	.	.	2.f\	roy,	2d/	roy,
2d\	le	.	.	.	.	2d/	vi-
.	.	.	.	4d\	.	.	.
=37	=37	=37	=37	=37	=37	=37	=37
2.B\	roy,	0d	le	1d	.	2dd\	-ve
.	.	.	.	.	.	2dd\	le
4G\	.	.	.	.	.	.	.
1G	.	.	.	2r	.	2.b\	roy,
.	.	.	.	[2G/	vi-	.	.
.	.	.	.	.	.	4g/	.
=38	=38	=38	=38	=38	=38	=38	=38
2r	.	0g	roy.	4G/]	.	1g	.
.	.	.	.	4G/	-ve	.	.
2.C/	vi-	.	.	2G/	le	.	.
.	.	.	.	1G	roy,	2r	.
4C/	-ve	.	.	.	.	.	.
2C/	le	.	.	.	.	[2c/	vi-
=39	=39	=39	=39	=39	=39	=39	=39
!	!	!LO:N:vis=0	!	!	!	!	!
1C	roy,	[0el	.	2r	.	4c/]	.
.	.	.	.	.	.	4c/	-ve
.	.	.	.	2.g\	vi-	2c/	le
2r	.	.	.	.	.	1c	roy,
.	.	.	.	4g\	-ve	.	.
[2c\	vi-	.	.	2g\	le	.	.
=40	=40	=40	=40	=40	=40	=40	=40
4c\]	.	0e_	.	[0gl	roy.	2r	.
4c\	-ve	.	.	.	.	.	.
2c\	le	.	.	.	.	2.cc\	vi-
[1cl	roy.	.	.	.	.	.	.
.	.	.	.	.	.	4cc\	-ve
.	.	.	.	.	.	2cc\	le
=41	=41	=41	=41	=41	=41	=41	=41
0c]	.	0e]	.	0g]	.	0ccl	roy.
==	==	==	==	==	==	==	==
*-	*-	*-	*-	*-	*-	*-	*-
!!!RDF**kern: l=long note in original notation
!!!RDF**kern: i=editorial accidental
!!!ENC: Will Watson 18/08/2011
!!!END: 2011/08/18/
!!!EED: Jesse Rodin
!!!EEV: 2012/05/25/
!!attribution-level@Jos: 2 (provisionally attributable [parentheses checkmark])
!!!ONB: Translated from MusicXML and edited on 2011/09/21/ by Craig Sapp
!!muse2ps: C^@{COM}\n@{SCT}^i2I150v90,90,90,120c105z18l2700t130
